ashes/src/images/icons/customers.svg

<?xml version="1.0" encoding="UTF-8" standalone="no"?>
<svg width="17px" height="17px" viewBox="0 0 17 17" version="1.1" xmlns="http://www.w3.org/2000/svg" xmlns:xlink="http://www.w3.org/1999/xlink">
    <!-- Generator: Sketch 42 (36781) - http://www.bohemiancoding.com/sketch -->
    <title>Icon_Customers_Users</title>
    <desc>Created with Sketch.</desc>
    <defs></defs>
    <g id="Page-1" stroke="none" stroke-width="1" fill="none" fill-rule="evenodd">
        <g id="Artboard-Copy" transform="translate(-67.000000, -187.000000)" fill="#FFFFFF">
            <g id="Icon_Customers_Users" transform="translate(67.000000, 187.000000)">
                <path d="M8.52322835,8.56019736 C10.5224631,8.56019736 12.1432987,6.66309463 12.1432987,4.32324947 C12.1432987,1.07825907 10.5224631,0.0863015782 8.52322835,0.0863015782 C6.52399357,0.0863015782 4.90341334,1.07825907 4.90341334,4.32324947 C4.90341334,6.66309463 6.52399357,8.56019736 8.52322835,8.56019736" id="Fill-3"></path>
                <path d="M16.5168482,15.5603277 L14.6907272,11.446449 C14.606979,11.2580153 14.4604195,11.1020086 14.2776031,11.0067705 L11.4434389,9.53147311 C11.380883,9.49904619 11.3050499,9.50542944 11.2488773,9.54781424 C10.4473961,10.1542233 9.50471731,10.4746626 8.52322835,10.4746626 C7.5417394,10.4746626 6.59931595,10.1542233 5.7975794,9.54781424 C5.74115144,9.50542944 5.66557373,9.49904619 5.60301785,9.53147311 L2.7688536,11.0067705 C2.58629257,11.1020086 2.43947775,11.2580153 2.35598481,11.446449 L0.529608508,15.5603277 C0.403730762,15.8439995 0.429519103,16.1685241 0.598802968,16.4287055 C0.767831503,16.6888868 1.05405656,16.8441275 1.36428265,16.8441275 L15.6821741,16.8441275 C15.9926555,16.8441275 16.2788805,16.6886315 16.4479091,16.4287055 C16.6169376,16.1685241 16.6427259,15.8439995 16.5168482,15.5603277" id="Fill-4"></path>
            </g>
        </g>
    </g>
</svg>

<svg xmlns="http://www.w3.org/2000/svg" width="17" height="17"><path fill="#FFF" fill-rule="evenodd" d="M8.52 8.56c2 0 3.62-1.9 3.62-4.24C12.14 1.08 10.52.1 8.52.1S4.9 1.07 4.9 4.3c0 2.34 1.62 4.24 3.62 4.24m8 7.02l-1.83-4.1c-.1-.2-.26-.36-.44-.45l-2.84-1.45c-.06-.03-.13-.02-.2.02-.8.6-1.74.92-2.72.92-.97 0-1.9-.33-2.7-.93-.07-.04-.14-.05-.2-.02L2.76 11c-.18.1-.33.26-.4.45l-1.84 4.1c-.13.3-.1.62.07.88s.44.4.75.4h14.32c.3 0 .6-.14.77-.4.17-.26.2-.6.07-.87"/></svg>
